X: 1
T: Farewell to East Buffalo Street
C: by David A Kaynor, 2015
R: waltz
%D:2015
B: David A. Kaynor "Living Music and Dance" 2021
Z: 2022 John Chambers <jc:trillian.mit.edu>
S: Dave_Kaynors_Melodies_and_Harmonies.PDF
M: 3/4
L: 1/8
K: Gm
# = = = = = = = = = =
V: 1 staves=2
"^A"[|]BA |\
"Gm"G4 G2 | GD GA B2 | GD GA B2 | GD GA B2 ||\
"Gm"G4 G2 | GD GA B2 | GD GA Bc | "Cm"c4 ||
GB |\
"Cm"cG cd e2 | cG cd e2 | "Gm"BG Bc d2 | BG Bc d2 ||\
"Cm"cG AB cd | "F"c3 d cA | "Cm"B2 G3 "Em"F | "Gm"G4 :|
"^B"|: GA |\
"Gm"BG Bd ga | bg ab ab | bg ab ab | bg ab ab ||\
"Gm"gd gb ab | bg ab ab | gd BG DB, | "Cm"C4 ||
CD |\
"Cm"EC EG EG | cG ce ce | "Gm"dG Bd Bd | dG Bd Bd ||\
"Cm"c3 G AB | "F"c3 d cA | "Gm"B2 G3 "F"F | "Gm"G4 :|
# = = = = = = = = = =
V: 2
GF |\
"Gm"D4 D2 | DB, DF G2 | DB, DF G2 | DB, DF G2 ||\
"Gm"D4 D2 | DB, DF G2 | DB, DF GA | "Cm"G4 ||
EG |\
"Cm"GE GA c2 | GE GA c2 | "Gm"GD GA B2 | GD GA B2 ||\
"Cm"GE FG G2 | "F"A3 B AF | "Cm"G2 E3 "Dm"D | "Gm"[D4B,4] :|
|: DF |\
"Gm"GD GB df | gd fg fg | gd fg fg | gd fg fg ||\
"Gm"dB dg fg | gd fg fg | dB GD B,G, | "Cm"G,4 ||
G,G, |\
"Cm"CG, CD CD | GC Gc Gc | "Gm"BD GB GB | BD GB GB ||\
"Cm"G3 E FG | "F"A3 B AF | "Gm"G2 D3 "F"C | "Gm"[D4B,4] :|
# = = = = = = = = = =
%%begintext align
%%endtext
